X:75
T:De'el take the Hindmost. VWMLa.075
%%VWML:Anon2-3049-p44-0
F:http://www.vwml.org/record/Anon2/3049/p44
S:Anon. MS, late 18thC, Vaughan Williams Mem. Library
N:Sound slike polka to me. PJH.
O:England;Yorkshire
Z:vmp/efdss.Simon Wilson. Reviewed PJH 2008.
M:C|
L:1/8
Q:1/2=60
K:F
c|(A/B/c/A/) Fc (A/B/c/A/) Fc|(A/B/c/A/) Fc dG2d|\
(A/B/c/A/) FA f>gag|fdcB AF2:|
|:e|f>gaf gfaf|cfaf gd2e|f>gaf gfag|fdcB AF2:|
T:Green Sleeves. VWMLa.076
R:Jig
S:Anon. MS, late 18thC, Vaughan Williams Mem. Library
O:England;Yorkshire
Z:vmp/efdss.Simon Wilson. Reviewed PJH 2008.
M:6/8
L:1/8
Q:3/8=120
K:Bb
"^Key as in MS"\
A|B2B Bcd|c2A F2A|B2G GAB|A2F D2A|\
B2B Bcd|c2A F2A|BAG AG^F|G3 G2:|
e|f2f fed|c2A F2e|g2g gab|a2f d2e|\
f2f fed|c2A F2A|BAG AG^F|G3 G2:|
